X:12677
T:Musica, dein ganz lieblich Kunst
C:Johann Jeep
O:Germany
B:Jeep1614
R:Renaissance
Z:Transcribed by Frank Nordberg - http://www.musicaviva.com
%http://abc.musicaviva.com/tunes/jeep-johann/jeep-musica/jeep-musica-voca4.abc
V:1 Program 1 68 %Oboe
V:2 Program 1 73 %Flute
V:3 Program 1 69 alto %English horn
V:4 Program 1 70 bass %Bassoon
M:C|
L:1/4
Q:1/2=105
K:C
V:1
G2GG|c2G2|A>Bc2-|cB/A/BB|ccc>B|A2G2|
w:Mu-si-ca, dein ganz lieb-------lich Kunst, Mu-si-ca, dein ganz
w:hat bil-lig al-lent-hal-------ben Gunst, hat bil-lig al-lent-
V:2
z4|C2CC|F2C2|D3D|EEEE|FFED/C/|
w:Mu-si-ca, dein ganz lieb-lich Kunst, Mu-si-ca, dein ganz lieb---
w:hat bil-lig al-lent-hal-ben Gunst, hat bil-lig al-lent-hal---
V:3
z4|z4|z4|G,2G,G,|C2G,2|A,>B,C2-|
w:Mu-si-ca, dein ganz lieb---
w:hat bil-lig al-lent-hal---
V:4
z4|z4|z4|z4|C,2C,C,|F,2C,2|
w:Mu-si-ca, dein ganz
w:hat bil-lig al-lent-
%
V:1
G3G|G2z2|z4|zcA>B|c3B|A2B2|z2zB|
w:lieb-lich Kunst, ist eh-ren-wert zu hal-ten, ist
w:hal-ben Gunst, bei Jun-gen und bei Al-ten, bei
V:2
D3D|EGE>F|GGA2|GGF2|GA2G-|G^FG2|z2zG|
w:-lich Kunst, ist eh-ren-wert zu hal-ten, ist eh-ren-wert zu_ hal-ten, ist
w:-ben Gunst, bei Jun-gen und bei Al-ten, bei Jun-gen und bei_ Al-ten, bei
V:3
CB,/A,/B,B,|CEC>D|EEFE/D/|E2DF|EEFD|C2DD|EDCD|
w:----lich Kunst, ist eh-ren-wert zu hal----ten, ist eh-ren-wert zu hal-ten, ist eh-ren-wert zu
w:----ben Gunst, bei Jun-gen und bei Al----ten, bei Jun-gen und bei Al-ten, bei Jun-gen und bei
V:4
G,3G,|C,4|zCA,>B,|C2D2|C/B,/A,/G,/F,G,|A,2G,2|zG,A,G,|
w:lieb-lich Kunst, ist eh-ren-wert zu hal-------ten, ist eh-ren-
w:hal-ben Gunst, bei Jun-gen und bei Al-------ten, bei Jun-gen
%
V:1
c>BAA|G4|G4::(3ccc (3:2:2B2A|^G2A2|
w:eh-ren-wert zu hal-ten, Sie frischt das Herz, welchs lei-det
w:Jun-gen und bei Al-ten.
V:2
AGF2-|FED2|E4::(3GGG (3:2:2G2E|E2D2|
w:eh-ren-wert zu hal-ten, Sie frischt das Herz, welchs lei-det
w:Jun-gen und bei Al-ten.
V:3
A,/B,/C>B,A,|B,C2B,|C4::(3EEE (3:2:2D2C|B,2A,2|
w:hal--------ten, Sie frischt das Herz, welchs lei-det
w:Al--------ten.
V:4
F,E,F,/G,/A,/F,/|G,4|C,4::(3CCC (3:2:2G,2A,|E,2F,2|
w:wert zu hal-----ten, Sie frischt das Herz, welchs lei-det
w:und bei Al-----ten.
%
V:1
^GABB|B/A/G/A/Bc|ded2|BccB|A>GFA|G4|G4:|
w:Schmerz, tut all Un-mut____ ver-trei---ben, l\"a\sst trau-rig nie---mand blei-ben.
V:2
E^FGG|G/A/B/A/GG|A/B/c/B/AA|zGAG|F>GAF|E2D2|E4:|
w:Schmerz, tut all Un-mut____ ver-trei-----ben, l\"a\sst trau-rig nie---mand blei--ben.
V:3
B,DDD|D/C/B,/C/DE|^FG2F|GEE>D|C3D|B,/G,/C2B,|C4:|
w:Schmerz, tut all Un-mut____ ver-trei---ben, l\"a\sst trau-rig nie-mand blei----ben.
V:4
E,D,G,G,|G,3F,/E,/|D,C,D,2|G,CA,E,|F,3D,|E,>F,G,2|C,4:|
w:Schmerz, tut all Un-mut ver--trei---ben, l\"a\sst trau-rig nie-mand blei---ben.
W:
W:Musica, dein ganz lieblich Kunst,
W:ist ehrenwert zu halten,
W:hat billig allenthalben Gunst,
W:bei Jungen und bei Alten.
W:  Sie frischt das Herz,
W:  welchs leidet Schmerz,
W:  tut all Unmut vertreiben,
W:  l\"a\sst traurig niemand bleiben.
W:
W:Viel edler Kraft sie mit sich bringt,
W:davon Exempel zeugen,
W:ihr Lieblichkeit durch Herze dringt;
W:wer k\"onnt ihr Lob verschweigen?
W:  Es m\"u\sst doch sein
W:  ein harter Stein,
W:  der sich nicht lie\ss bewegen,
W:  wenn das Gsang sich tut regen.
W:
W:
W:  From Musica Viva - http://www.musicaviva.com
W:  the Internet center for free sheet music downloads.

